X: 1
T: Soita, Humu-Pekka
M: C|
L: 1/8
K: Gm
[|"Gm"G,G,B,D GGGG | "Cm"EEEC "Gm"D2D2 | "D7"C2CA, "Gm"B,B,B,G, | "D7"A,2DE D2z2 |
| "Gm"G,G,B,D GGGG | "Cm"EEEC "Gm"D2D2 | "Eb"B2BG "D7"AAAF | "Gm"G2G2 G2z2 |]
|: "Cm"EEcB [A2E2][A2E2] | "Gm"DDBA [G2D2][G2D2] | "Cm"[E2C]EC "Gm"[D2B,]DD | "D7"D2[BD][AC] "Gm"[G2B,]z2 :|
